resources/assets/components/pages/AccountPage/Badges/StaffFave2Locked.svg

<?xml version="1.0" encoding="UTF-8"?>
<svg width="108px" height="108px" viewBox="0 0 108 108" version="1.1" xmlns="http://www.w3.org/2000/svg" xmlns:xlink="http://www.w3.org/1999/xlink">
    <!-- Generator: Sketch 55.1 (78136) - https://sketchapp.com -->
    <title>Badge / Inactive  / Staff Fave 2</title>
    <desc>Created with Sketch.</desc>
    <g id="Badge-/-Inactive--/-Staff-Fave-2" stroke="none" stroke-width="1" fill="none" fill-rule="evenodd">
        <g id="Staff-Fave-2">
            <g id="Layer_1">
                <ellipse id="Oval" fill="#E7E7E7" fill-rule="nonzero" cx="53.7511521" cy="53.6094675" rx="53.7511521" ry="53.6094675"></ellipse>
                <path d="M16.8917972,86.8364168 L92.0966267,86.8364168 L86.1392074,92.1288626 L68.2639631,102.74453 C68.2639631,102.74453 57.4072258,104.607955 54.4947097,104.464997 C51.5821935,104.322038 32.5154654,101.311966 32.5154654,101.311966 L16.8917972,86.8364168 Z" id="Path" fill="#F5F5F5" fill-rule="nonzero"></path>
                <polygon id="Path" fill="#EAEAEA" fill-rule="nonzero" points="44.2710415 93.1017751 24.5055484 86.8364168 61.8755392 86.8364168 61.8755392 89.9685996"></polygon>
                <path d="M37.0773456,33.2309204 L26.9751152,33.2309204 C26.9751152,33.2309204 30.3226175,62.868021 54.8998341,62.868021" id="Path" stroke="#FFFFFF" stroke-width="2.47056221" stroke-linecap="round" stroke-linejoin="round"></path>
                <path d="M70.5294747,33.2309204 L80.6317051,33.2309204 C80.6317051,33.2309204 77.2842028,62.868021 52.7069862,62.868021" id="Path" stroke="#FFFFFF" stroke-width="2.47056221" stroke-linecap="round" stroke-linejoin="round"></path>
                <path d="M51.2795945,79.2040171 L48.3133272,79.2040171 C47.5974258,79.2045413 47.0158242,79.7806217 47.0103594,80.4946154 C51.6986544,81.8219461 59.0267281,82.3898093 59.0267281,82.3898093 L46.8242212,82.3898093 L46.8112811,82.3898093 L46.6550046,82.3898093 C45.9436484,82.3897264 45.3639093,82.9590963 45.3530323,83.6684944 C51.9355576,84.9154109 61.6147465,85.4495201 61.6147465,85.4495201 L45.2067097,85.4495201 C45.1892663,85.4547206 45.1711644,85.4573953 45.1529585,85.4574622 L45.1529585,85.4574622 C44.4333493,85.4574622 43.8499908,86.039283 43.8499908,86.7569954 L43.8499908,89.0403616 C49.3664516,91.318764 57.6560737,92.6143261 61.3887926,93.1057462 L63.1546175,93.1057462 C63.4294873,93.1057462 63.6523134,92.8835076 63.6523134,92.6093623 L63.6523134,86.7569954 C63.6523134,86.039283 63.0689548,85.4574622 62.3493456,85.4574622 L62.3493456,85.4574622 C62.2393977,85.4574622 62.1502673,85.3685667 62.1502673,85.2589086 L62.1502673,83.6903353 C62.1502673,82.9726229 61.5669088,82.3908021 60.8472995,82.3908021 L60.691023,82.3908021 C60.5810751,82.3908021 60.4919447,82.3019066 60.4919447,82.1922485 L60.4919447,80.5045431 C60.4919447,79.7868307 59.9085862,79.2050099 59.188977,79.2050099 L56.2227097,79.2050099 C56.2084839,79.206544 56.1941337,79.206544 56.1799078,79.2050099 L51.3223963,79.2050099 C51.3081347,79.2062145 51.2937845,79.2058816 51.2795945,79.2040171 Z" id="Path" fill="#FFFFFF" fill-rule="nonzero"></path>
                <path d="M52.5138802,69.4619855 C52.5845218,69.5017614 52.6238995,69.5803093 52.6134194,69.6605391 L51.6648111,77.5034057 C53.0006267,77.8429323 54.4927189,78.1278567 55.9449954,78.3611571 L54.8928664,69.6635174 C54.8823862,69.5832876 54.921764,69.5047397 54.9924055,69.4649638 C54.5942488,69.4937541 54.1781751,69.5096384 53.7541382,69.5096384 C53.3301014,69.5096384 52.9160184,69.4937541 52.5138802,69.4619855 Z" id="Path" fill="#FFFFFF" fill-rule="nonzero"></path>
                <path d="M38.6500645,49.7614981 L38.1772535,49.7614981 C38.0397318,49.7612351 37.9082301,49.8177357 37.8139539,49.9175931 C37.7196778,50.0174505 37.671031,50.1517633 37.6795576,50.2886588 C37.8073847,52.0860776 38.0891118,53.8692995 38.521659,55.6188297 C38.2294516,54.1880443 38.5971034,52.7020188 39.5231069,51.5710394 C40.4491105,50.4400599 41.8355149,49.7837594 43.2995392,49.7833399 L66.2064885,49.7833399 C67.1416002,49.7822931 68.0320224,50.1822955 68.6509208,50.8814469 C69.2698192,51.5805982 69.5574415,52.511398 69.4405161,53.4367258 C69.6227065,52.3947418 69.7499597,51.3439419 69.8217512,50.2886588 C69.8302778,50.1517633 69.781631,50.0174505 69.6873548,49.9175931 C69.5930787,49.8177357 69.4615769,49.7612351 69.3240553,49.7614981 L68.8512442,49.7614981 C68.8393196,49.7624754 68.8273348,49.7624754 68.8154101,49.7614981 L38.6858986,49.7614981 C38.673974,49.7624754 38.6619892,49.7624754 38.6500645,49.7614981 L38.6500645,49.7614981 Z" id="Path" fill="#FFFFFF" fill-rule="nonzero"></path>
                <path d="M71.307871,30.3608195 L36.1944332,30.3608195 C35.9195634,30.3608195 35.6967373,30.5830671 35.6967373,30.8572124 L35.6967373,35.7048981 C35.6967373,35.9790434 35.9195634,36.2012821 36.1944332,36.2012821 L36.5925899,36.2012821 C36.6008758,36.2007372 36.6091887,36.2007372 36.6174747,36.2012821 L70.8878157,36.2012821 C70.8961016,36.2007372 70.9044145,36.2007372 70.9127005,36.2012821 L71.3108571,36.2012821 C71.585727,36.2012821 71.808553,35.9790434 71.808553,35.7048981 L71.808553,30.8572124 C71.808553,30.7250455 71.75571,30.5983348 71.6617271,30.5051587 C71.5677441,30.4119826 71.4403848,30.3600354 71.307871,30.3608195 L71.307871,30.3608195 Z" id="Path" fill="#FFFFFF" fill-rule="nonzero"></path>
                <path d="M36.788682,37.0302433 C36.788682,37.3043886 37.0115081,37.5266272 37.2863779,37.5266272 L38.6500645,37.5266272 C38.6710574,37.5272694 38.6918457,37.5309479 38.7117788,37.5375477 L68.7905253,37.5375477 C68.8104585,37.5309479 68.8312467,37.5272694 68.8522396,37.5266272 L70.2159263,37.5266272 C70.4907961,37.5266272 70.7136221,37.3043886 70.7136221,37.0302433 L70.7136221,36.4018212 C70.7139457,36.3446341 70.7389763,36.2903632 70.7823041,36.252906 C63.4442765,36.3402696 48.1301751,36.5507364 36.788682,36.9180605 L36.788682,37.0302433 Z" id="Path" fill="#FFFFFF" fill-rule="nonzero"></path>
                <path d="M38.8491429,45.5521631 C48.940424,48.1095332 64.6924977,49.3941749 68.7009401,49.6900197 C68.6705431,49.6545736 68.6536281,49.6095858 68.6531613,49.5629454 L68.6531613,37.7251808 C68.6532842,37.6819139 68.6680109,37.6399485 68.6949677,37.6060487 C64.675576,37.903879 48.935447,39.1875279 38.8491429,41.7429126 L38.8491429,45.5521631 Z" id="Path" fill="#FFFFFF" fill-rule="nonzero"></path>
                <path d="M43.8499908,92.6053912 C43.8499908,92.8795365 44.0728168,93.1017751 44.3476866,93.1017751 L61.3887926,93.1017751 C57.6560737,92.6053912 49.3664516,91.3147929 43.8499908,89.0363905 L43.8499908,92.6053912 Z" id="Path" fill="#FFFFFF" fill-rule="nonzero"></path>
                <path d="M45.3530323,83.6704799 C45.3530323,83.6774293 45.3530323,83.6843787 45.3530323,83.6913281 L45.3530323,85.2589086 C45.3527775,85.3477094 45.2934343,85.4255441 45.2077051,85.4495201 L61.6147465,85.4495201 C61.6147465,85.4495201 51.9355576,84.9154109 45.3530323,83.6704799 Z" id="Path" fill="#FFFFFF" fill-rule="nonzero"></path>
                <path d="M47.0103594,80.4936226 L47.0103594,82.1932413 C47.0105817,82.2980508 46.9290858,82.3849825 46.8242212,82.3917949 L59.0267281,82.3917949 C59.0267281,82.3917949 51.6986544,81.8219461 47.0103594,80.4936226 Z" id="Path" fill="#FFFFFF" fill-rule="nonzero"></path>
                <path d="M51.476682,79.0292899 C51.4664794,79.1127505 51.4046762,79.1807536 51.3223963,79.1990533 L56.1799078,79.1990533 C56.097628,79.1807536 56.0358248,79.1127505 56.0256221,79.0292899 L55.9430046,78.353215 C54.4907281,78.1199145 52.9986359,77.8349901 51.6628203,77.4954635 L51.476682,79.0292899 Z" id="Path" fill="#FFFFFF" fill-rule="nonzero"></path>
                <path d="M68.8164055,49.7581354 L69.6545253,49.7581354 C69.6545253,49.7581354 69.3150968,49.7361354 68.7009401,49.6901354 C68.7300117,49.7260433 68.7710166,49.7501919 68.8164055,49.7581354 L68.8164055,49.7581354 Z" id="Path" fill="#F9BB0B" fill-rule="nonzero"></path>
                <path d="M38.8491429,49.5629454 C38.8507308,49.6600389 38.7816737,49.7440328 38.6858986,49.761499 L68.8164055,49.761499 C68.7710166,49.7536129 68.7300117,49.729639 68.7009401,49.6939908 C64.6924977,49.3961604 48.940424,48.1135043 38.8491429,45.5561341 L38.8491429,49.5629454 Z" id="Path" fill="#FFFFFF" fill-rule="nonzero"></path>
                <path d="M69.6545253,37.5356742 L68.7905253,37.5356742 C68.7510264,37.5477483 68.7162412,37.5718612 68.6909862,37.6046742 C69.313106,37.5586742 69.6545253,37.5356742 69.6545253,37.5356742 Z" id="Path" fill="#F9BB0B" fill-rule="nonzero"></path>
                <path d="M38.8491429,37.7251808 L38.8491429,41.7429126 C48.935447,39.1875279 64.675576,37.9028863 68.6949677,37.6060487 C68.7202227,37.5734729 68.7550079,37.5495344 68.7945069,37.5375477 L38.7117788,37.5375477 C38.7933053,37.5640588 38.8486505,37.6396578 38.8491429,37.7251808 Z" id="Path" fill="#FFFFFF" fill-rule="nonzero"></path>
                <path d="M36.788682,36.3998356 L36.788682,36.916075 C48.1301751,36.5497436 63.4442765,36.338284 70.7823041,36.2509204 C70.8120833,36.2253168 70.8487971,36.209081 70.8878157,36.2042604 L36.6144885,36.2042604 C36.7134915,36.2166981 36.7879676,36.3003158 36.788682,36.3998356 Z" id="Path" fill="#FFFFFF" fill-rule="nonzero"></path>
                <path d="M66.2064885,49.783331 L43.2995392,49.783331 C41.8355149,49.7837594 40.4491105,50.4400599 39.5231069,51.5710394 C38.5971034,52.7020188 38.2294516,54.1880443 38.521659,55.6188297 C39.886341,61.1693951 43.3990783,68.7581131 52.4312627,69.434188 C52.4618121,69.437064 52.4913651,69.4465502 52.5178618,69.4619855 C52.9160184,69.489783 53.3310968,69.5056673 53.7551336,69.5056673 C54.1791705,69.5056673 54.5912627,69.489783 54.9934009,69.4609928 C55.0198086,69.4463393 55.0489381,69.4372181 55.0790046,69.434188 C65.3713548,68.6628074 68.4978802,58.9108481 69.4444977,53.4367258 C69.561512,52.5107098 69.2733742,51.5792485 68.6535872,50.8799542 C68.0338002,50.1806599 67.142294,49.7811507 66.2064885,49.783331 Z" id="Path" fill="#FFFFFF" fill-rule="nonzero"></path>
            </g>
            <g id="Layer_2" fill="#DDDDDD" fill-rule="nonzero">
                <path d="M53.7511521,5.6586745 C76.6176795,5.67583373 96.3102812,21.7490795 100.850166,44.1013371 C105.39005,66.4535946 93.5217061,88.903318 72.4645161,97.7945891 C47.9972532,108.102452 19.7843596,96.6762726 9.44925412,72.273504 C-0.885851361,47.8707354 10.5705254,19.732209 35.037788,9.42434583 C40.9580295,6.92622845 47.3228784,5.64547125 53.7511521,5.6586745 L53.7511521,5.6586745 Z M53.7511521,0 C24.0655853,0 0,24.0021499 0,53.6094675 C0,83.216785 24.0655853,107.218935 53.7511521,107.218935 C83.4367189,107.218935 107.502304,83.216785 107.502304,53.6094675 C107.502304,24.0021499 83.4367189,0 53.7511521,0 Z" id="Shape"></path>
            </g>
        </g>
    </g>
</svg>

<svg id="Layer_1" data-name="Layer 1" xmlns="http://www.w3.org/2000/svg" viewBox="0 0 108 108"><defs><style>.cls-1{fill:#e7e7e7;}.cls-2{fill:#f5f5f5;}.cls-3{fill:#eaeaea;}.cls-4{fill:none;stroke:#fff;stroke-linecap:round;stroke-linejoin:round;stroke-width:2.47px;}.cls-5{fill:#fff;}.cls-6{fill:#f9bb0b;}.cls-7{fill:#ddd;}</style></defs><title>Staff Fave 2 Locked</title><g id="Staff-Fave-2"><ellipse id="Oval" class="cls-1" cx="53.75" cy="53.61" rx="53.75" ry="53.61"/><path id="Path" class="cls-2" d="M16.89,86.84H92.1l-6,5.29L68.26,102.74s-10.85,1.87-13.77,1.72-22-3.15-22-3.15Z"/><polygon class="cls-3" points="44.27 93.1 24.51 86.84 61.88 86.84 61.88 89.97 44.27 93.1"/><path class="cls-4" d="M37.08,33.23H27S30.32,62.87,54.9,62.87"/><path class="cls-4" d="M70.53,33.23h10.1S77.28,62.87,52.71,62.87"/><path class="cls-5" d="M51.28,79.2h-3A1.31,1.31,0,0,0,47,80.49a77.48,77.48,0,0,0,12,1.9H46.66a1.3,1.3,0,0,0-1.31,1.28,153.9,153.9,0,0,0,16.26,1.78H45.15a1.3,1.3,0,0,0-1.3,1.3V89c5.52,2.28,13.81,3.57,17.54,4.07h1.76a.5.5,0,0,0,.5-.5V86.76a1.3,1.3,0,0,0-1.3-1.3h0a.2.2,0,0,1-.2-.2V83.69a1.3,1.3,0,0,0-1.3-1.3h-.16a.2.2,0,0,1-.2-.2V80.5a1.3,1.3,0,0,0-1.3-1.29H51.28Z"/><path class="cls-5" d="M52.51,69.46a.2.2,0,0,1,.1.2l-1,7.84c1.34.34,2.83.63,4.28.86l-1-8.7a.2.2,0,0,1,.1-.2c-.4,0-.81.05-1.24.05S52.92,69.49,52.51,69.46Z"/><path class="cls-5" d="M38.65,49.76h-.47a.52.52,0,0,0-.37.16.5.5,0,0,0-.13.37,32,32,0,0,0,.84,5.33,4.87,4.87,0,0,1,4.78-5.84H66.21a3.25,3.25,0,0,1,3.23,3.66,30.75,30.75,0,0,0,.38-3.15.5.5,0,0,0-.13-.37.52.52,0,0,0-.37-.16H38.65Z"/><path class="cls-5" d="M71.31,30.36H36.19a.49.49,0,0,0-.49.5V35.7a.49.49,0,0,0,.49.5H71.31a.5.5,0,0,0,.5-.5V30.86a.51.51,0,0,0-.5-.5Z"/><path class="cls-5" d="M36.79,37a.5.5,0,0,0,.5.5H70.22a.5.5,0,0,0,.49-.5V36.4a.21.21,0,0,1,.07-.15c-7.34.09-22.65.3-34,.67Z"/><path class="cls-5" d="M38.85,45.55c10.09,2.56,25.84,3.84,29.85,4.14a.21.21,0,0,1,0-.13V37.73a.21.21,0,0,1,0-.12c-4,.29-19.75,1.58-29.84,4.13Z"/><path class="cls-5" d="M43.85,92.61a.49.49,0,0,0,.5.49h17c-3.73-.49-12-1.79-17.54-4.06Z"/><path class="cls-5" d="M45.35,83.67v1.59a.2.2,0,0,1-.14.19h16.4A153.9,153.9,0,0,1,45.35,83.67Z"/><path class="cls-5" d="M47,80.49v1.7a.2.2,0,0,1-.19.2H59A77.48,77.48,0,0,1,47,80.49Z"/><path class="cls-5" d="M51.48,79a.21.21,0,0,1-.16.17h4.86A.2.2,0,0,1,56,79l-.09-.68c-1.45-.23-2.94-.52-4.28-.85Z"/><path class="cls-6" d="M68.82,49.76h.83l-1-.07a.19.19,0,0,0,.12.07Z"/><path class="cls-5" d="M38.85,49.56a.2.2,0,0,1-.16.2H68.82a.19.19,0,0,1-.12-.07c-4-.29-19.76-1.58-29.85-4.13Z"/><path class="cls-6" d="M69.65,37.54h-.86a.21.21,0,0,0-.1.06Z"/><path class="cls-5" d="M38.85,37.73v4c10.09-2.55,25.83-3.84,29.84-4.13a.2.2,0,0,1,.1-.07H38.71A.2.2,0,0,1,38.85,37.73Z"/><path class="cls-5" d="M36.79,36.4v.52c11.34-.37,26.65-.58,34-.67l.11,0H36.61A.21.21,0,0,1,36.79,36.4Z"/><path class="cls-5" d="M66.21,49.78H43.3a4.87,4.87,0,0,0-4.78,5.84c1.37,5.55,4.88,13.14,13.91,13.81l.09,0c.4,0,.81.05,1.24.05s.83,0,1.23-.05l.09,0c10.29-.77,13.42-10.52,14.36-16a3.25,3.25,0,0,0-3.23-3.66Z"/><path id="Shape" class="cls-7" d="M53.75,5.66A48,48,0,1,1,35,9.42,48.06,48.06,0,0,1,53.75,5.66Zm0-5.66A53.61,53.61,0,1,0,107.5,53.61,53.68,53.68,0,0,0,53.75,0Z"/></g></svg>
